actions/22/node-to-curve.svg

<?xml version="1.0" encoding="UTF-8" standalone="no"?>
<!-- Created with Inkscape (http://www.inkscape.org/) -->

<svg
   xmlns:dc="http://purl.org/dc/elements/1.1/"
   xmlns:cc="http://creativecommons.org/ns#"
   xmlns:rdf="http://www.w3.org/1999/02/22-rdf-syntax-ns#"
   xmlns:svg="http://www.w3.org/2000/svg"
   xmlns="http://www.w3.org/2000/svg"
   xmlns:xlink="http://www.w3.org/1999/xlink"
   xmlns:inkscape="http://www.inkscape.org/namespaces/inkscape"
   version="1.0"
   width="22"
   height="22"
   id="svg7991">
  <defs
     id="defs7993">
    <linearGradient
       x1="12.816311"
       y1="400.38895"
       x2="12.816311"
       y2="406.51099"
       id="linearGradient12137"
       xlink:href="#linearGradient7442"
       gradientUnits="userSpaceOnUse"
       gradientTransform="matrix(0.875,0,0,0.875073,-20.3125,73.28306)" />
    <linearGradient
       x1="12.197592"
       y1="401.09631"
       x2="15.698984"
       y2="404.59772"
       id="linearGradient12135"
       xlink:href="#linearGradient7430"
       gradientUnits="userSpaceOnUse"
       gradientTransform="matrix(0.972223,0,0,0.972206,-21.62501,34.18715)" />
    <linearGradient
       x1="12.816311"
       y1="400.38895"
       x2="12.816311"
       y2="406.51099"
       id="linearGradient12133"
       xlink:href="#linearGradient7442"
       gradientUnits="userSpaceOnUse"
       gradientTransform="matrix(0.875,0,0,0.875073,-20.3125,73.28306)" />
    <linearGradient
       x1="12.197592"
       y1="401.09631"
       x2="15.698984"
       y2="404.59772"
       id="linearGradient12131"
       xlink:href="#linearGradient7430"
       gradientUnits="userSpaceOnUse"
       gradientTransform="matrix(0.972223,0,0,0.972206,-21.62501,34.18715)" />
    <linearGradient
       id="linearGradient7442">
      <stop
         id="stop7444"
         style="stop-color:#ffffff;stop-opacity:1"
         offset="0" />
      <stop
         id="stop7446"
         style="stop-color:#ffffff;stop-opacity:0"
         offset="1" />
    </linearGradient>
    <linearGradient
       x1="12.816311"
       y1="400.38895"
       x2="12.816311"
       y2="406.51099"
       id="linearGradient12129"
       xlink:href="#linearGradient7442"
       gradientUnits="userSpaceOnUse"
       gradientTransform="matrix(0.875,0,0,0.875073,-20.3125,73.28306)" />
    <linearGradient
       id="linearGradient7430">
      <stop
         id="stop7432"
         style="stop-color:#d3d7cf;stop-opacity:1"
         offset="0" />
      <stop
         id="stop7434"
         style="stop-color:#fafbfa;stop-opacity:1"
         offset="1" />
    </linearGradient>
    <linearGradient
       x1="12.197592"
       y1="401.09631"
       x2="15.698984"
       y2="404.59772"
       id="linearGradient12127"
       xlink:href="#linearGradient7430"
       gradientUnits="userSpaceOnUse"
       gradientTransform="matrix(0.972223,0,0,0.972206,-21.62501,34.18715)" />
  </defs>
  <metadata
     id="metadata7996">
    <rdf:RDF>
      <cc:Work
         rdf:about="">
        <dc:format>image/svg+xml</dc:format>
        <dc:type
           rdf:resource="http://purl.org/dc/dcmitype/StillImage" />
      </cc:Work>
    </rdf:RDF>
  </metadata>
  <g
     id="layer1">
    <g
       transform="translate(-275,-365)"
       id="object_tocurve">
      <path
         d="m 281.31278,370 c -2.93265,0 -5.31277,2.32605 -5.31277,5.19208 0,2.86603 2.38012,5.19208 5.31277,5.19208 2.93265,0 5.31277,-2.32605 5.31277,-5.19208 0,-2.86603 -2.38012,-5.19208 -5.31277,-5.19208 z m 9,1.85985 c -2.03535,0 -3.68722,2.04831 -3.68723,4.57213 0,2.52381 1.65187,4.57213 3.68723,4.57213 2.03534,0 3.68721,-2.04832 3.68722,-4.57213 0,-2.52382 -1.65188,-4.57213 -3.68722,-4.57213 z"
         inkscape:connector-curvature="0"
         id="path6839"
         style="fill:none;stroke:#555753;stroke-width:1.9999994;stroke-linecap:round;stroke-linejoin:miter;stroke-miterlimit:4;stroke-opacity:1;stroke-dasharray:none" />
      <g
         transform="matrix(0.857143,0,0,0.857143,288.2857,6.285683)"
         id="g10336">
        <path
           d="m -11.416675,422.5833 5.8333349,0 0,5.83323 -5.8333349,0 0,-5.83323 z"
           inkscape:connector-curvature="0"
           id="path10338"
           style="fill:url(#linearGradient12127);fill-opacity:1;stroke:#888a85;stroke-width:1.16666651;stroke-linecap:round;stroke-linejoin:round;stroke-miterlimit:4;stroke-opacity:1" />
        <path
           d="m -10.250011,423.74978 3.500003,0 0,3.50016 -3.500003,0 0,-3.50016 z"
           inkscape:connector-curvature="0"
           id="path10340"
           style="fill:none;stroke:url(#linearGradient12129);stroke-width:1.16666627;stroke-linecap:round;stroke-linejoin:miter;stroke-miterlimit:4;stroke-opacity:1" />
      </g>
      <g
         transform="matrix(0.857143,0,0,0.857143,286.2857,15.28568)"
         id="g10346">
        <path
           d="m -11.416675,422.5833 5.8333349,0 0,5.83323 -5.8333349,0 0,-5.83323 z"
           inkscape:connector-curvature="0"
           id="path10348"
           style="fill:url(#linearGradient12131);fill-opacity:1;stroke:#888a85;stroke-width:1.16666651;stroke-linecap:round;stroke-linejoin:round;stroke-miterlimit:4;stroke-opacity:1" />
        <path
           d="m -10.250011,423.74978 3.500003,0 0,3.50016 -3.500003,0 0,-3.50016 z"
           inkscape:connector-curvature="0"
           id="path10350"
           style="fill:none;stroke:url(#linearGradient12133);stroke-width:1.16666627;stroke-linecap:round;stroke-linejoin:miter;stroke-miterlimit:4;stroke-opacity:1" />
      </g>
      <g
         transform="matrix(0.857143,0,0,0.857143,301.2857,12.28568)"
         id="g10356">
        <path
           d="m -11.416675,422.5833 5.8333349,0 0,5.83323 -5.8333349,0 0,-5.83323 z"
           inkscape:connector-curvature="0"
           id="path10358"
           style="fill:url(#linearGradient12135);fill-opacity:1;stroke:#888a85;stroke-width:1.16666651;stroke-linecap:round;stroke-linejoin:round;stroke-miterlimit:4;stroke-opacity:1" />
        <path
           d="m -10.250011,423.74978 3.500003,0 0,3.50016 -3.500003,0 0,-3.50016 z"
           inkscape:connector-curvature="0"
           id="path10360"
           style="fill:none;stroke:url(#linearGradient12137);stroke-width:1.16666627;stroke-linecap:round;stroke-linejoin:miter;stroke-miterlimit:4;stroke-opacity:1" />
      </g>
    </g>
  </g>
</svg>

<?xml version="1.0" encoding="UTF-8" standalone="no"?>
<!-- Created with Inkscape (http://www.inkscape.org/) -->
<svg
   xmlns:dc="http://purl.org/dc/elements/1.1/"
   xmlns:cc="http://web.resource.org/cc/"
   xmlns:rdf="http://www.w3.org/1999/02/22-rdf-syntax-ns#"
   xmlns:svg="http://www.w3.org/2000/svg"
   xmlns="http://www.w3.org/2000/svg"
   xmlns:xlink="http://www.w3.org/1999/xlink"
   xmlns:sodipodi="http://sodipodi.sourceforge.net/DTD/sodipodi-0.dtd"
   xmlns:inkscape="http://www.inkscape.org/namespaces/inkscape"
   width="22"
   height="22"
   id="svg7991"
   sodipodi:version="0.32"
   inkscape:version="0.44+devel"
   version="1.0"
   sodipodi:docbase="/home/andreas/project/inkscape/22x22/actions"
   sodipodi:docname="node-to-curve.svg"
   inkscape:output_extension="org.inkscape.output.svg.inkscape"
   sodipodi:modified="TRUE"
   inkscape:export-filename="/home/andreas/project/inkscape/22x22/actions/node-to-curve.png"
   inkscape:export-xdpi="90"
   inkscape:export-ydpi="90">
  <defs
     id="defs7993">
    <linearGradient
       inkscape:collect="always"
       xlink:href="#linearGradient7442"
       id="linearGradient12137"
       gradientUnits="userSpaceOnUse"
       gradientTransform="matrix(0.875,0,0,0.875073,-20.3125,73.28306)"
       x1="12.816311"
       y1="400.38895"
       x2="12.816311"
       y2="406.51099" />
    <linearGradient
       inkscape:collect="always"
       xlink:href="#linearGradient7430"
       id="linearGradient12135"
       gradientUnits="userSpaceOnUse"
       gradientTransform="matrix(0.972223,0,0,0.972206,-21.62501,34.18715)"
       x1="12.197592"
       y1="401.09631"
       x2="15.698984"
       y2="404.59772" />
    <linearGradient
       inkscape:collect="always"
       xlink:href="#linearGradient7442"
       id="linearGradient12133"
       gradientUnits="userSpaceOnUse"
       gradientTransform="matrix(0.875,0,0,0.875073,-20.3125,73.28306)"
       x1="12.816311"
       y1="400.38895"
       x2="12.816311"
       y2="406.51099" />
    <linearGradient
       inkscape:collect="always"
       xlink:href="#linearGradient7430"
       id="linearGradient12131"
       gradientUnits="userSpaceOnUse"
       gradientTransform="matrix(0.972223,0,0,0.972206,-21.62501,34.18715)"
       x1="12.197592"
       y1="401.09631"
       x2="15.698984"
       y2="404.59772" />
    <linearGradient
       inkscape:collect="always"
       id="linearGradient7442">
      <stop
         style="stop-color:white;stop-opacity:1;"
         offset="0"
         id="stop7444" />
      <stop
         style="stop-color:white;stop-opacity:0;"
         offset="1"
         id="stop7446" />
    </linearGradient>
    <linearGradient
       inkscape:collect="always"
       xlink:href="#linearGradient7442"
       id="linearGradient12129"
       gradientUnits="userSpaceOnUse"
       gradientTransform="matrix(0.875,0,0,0.875073,-20.3125,73.28306)"
       x1="12.816311"
       y1="400.38895"
       x2="12.816311"
       y2="406.51099" />
    <linearGradient
       inkscape:collect="always"
       id="linearGradient7430">
      <stop
         style="stop-color:#d3d7cf;stop-opacity:1;"
         offset="0"
         id="stop7432" />
      <stop
         style="stop-color:#fafbfa;stop-opacity:1"
         offset="1"
         id="stop7434" />
    </linearGradient>
    <linearGradient
       inkscape:collect="always"
       xlink:href="#linearGradient7430"
       id="linearGradient12127"
       gradientUnits="userSpaceOnUse"
       gradientTransform="matrix(0.972223,0,0,0.972206,-21.62501,34.18715)"
       x1="12.197592"
       y1="401.09631"
       x2="15.698984"
       y2="404.59772" />
  </defs>
  <sodipodi:namedview
     id="base"
     pagecolor="#ffffff"
     bordercolor="#666666"
     borderopacity="1.0"
     inkscape:pageopacity="0.0"
     inkscape:pageshadow="2"
     inkscape:zoom="11.197802"
     inkscape:cx="16"
     inkscape:cy="16"
     inkscape:current-layer="object_tocurve"
     showgrid="false"
     inkscape:grid-bbox="true"
     inkscape:document-units="px"
     width="22px"
     height="22px"
     inkscape:window-width="797"
     inkscape:window-height="628"
     inkscape:window-x="3"
     inkscape:window-y="72" />
  <metadata
     id="metadata7996">
    <rdf:RDF>
      <cc:Work
         rdf:about="">
        <dc:format>image/svg+xml</dc:format>
        <dc:type
           rdf:resource="http://purl.org/dc/dcmitype/StillImage" />
      </cc:Work>
    </rdf:RDF>
  </metadata>
  <g
     id="layer1"
     inkscape:label="Layer 1"
     inkscape:groupmode="layer">
    <g
       id="object_tocurve"
       transform="translate(-275,-365)">
      <path
         id="path6839"
         d="M 281.31278,370 C 278.38013,370 276.00001,372.32605 276.00001,375.19208 C 276.00001,378.05811 278.38013,380.38416 281.31278,380.38416 C 284.24543,380.38416 286.62555,378.05811 286.62555,375.19208 C 286.62555,372.32605 284.24543,370 281.31278,370 z M 290.31278,371.85985 C 288.27743,371.85985 286.62556,373.90816 286.62555,376.43198 C 286.62555,378.95579 288.27742,381.00411 290.31278,381.00411 C 292.34812,381.00411 293.99999,378.95579 294,376.43198 C 294,373.90816 292.34812,371.85985 290.31278,371.85985 z "
         style="opacity:1;fill:none;fill-opacity:1;stroke:#555753;stroke-width:1.9999994;stroke-linecap:round;stroke-linejoin:miter;stroke-miterlimit:4;stroke-dasharray:none;stroke-opacity:1" />
      <g
         style="opacity:1"
         transform="matrix(0.857143,0,0,0.857143,288.2857,6.285683)"
         id="g10336">
        <path
           id="path10338"
           d="M -11.416675,422.5833 L -5.5833401,422.5833 L -5.5833401,428.41653 L -11.416675,428.41653 L -11.416675,422.5833 z "
           style="fill:url(#linearGradient12127);fill-opacity:1;stroke:#888a85;stroke-width:1.16666651;stroke-linecap:round;stroke-linejoin:round;stroke-miterlimit:4;stroke-opacity:1" />
        <path
           id="path10340"
           d="M -10.250011,423.74978 L -6.750008,423.74978 L -6.750008,427.24994 L -10.250011,427.24994 L -10.250011,423.74978 z "
           style="fill:none;fill-opacity:1;stroke:url(#linearGradient12129);stroke-width:1.16666627;stroke-linecap:round;stroke-linejoin:miter;stroke-miterlimit:4;stroke-opacity:1" />
      </g>
      <g
         style="opacity:1"
         transform="matrix(0.857143,0,0,0.857143,286.2857,15.28568)"
         id="g10346">
        <path
           id="path10348"
           d="M -11.416675,422.5833 L -5.5833401,422.5833 L -5.5833401,428.41653 L -11.416675,428.41653 L -11.416675,422.5833 z "
           style="fill:url(#linearGradient12131);fill-opacity:1;stroke:#888a85;stroke-width:1.16666651;stroke-linecap:round;stroke-linejoin:round;stroke-miterlimit:4;stroke-opacity:1" />
        <path
           id="path10350"
           d="M -10.250011,423.74978 L -6.750008,423.74978 L -6.750008,427.24994 L -10.250011,427.24994 L -10.250011,423.74978 z "
           style="fill:none;fill-opacity:1;stroke:url(#linearGradient12133);stroke-width:1.16666627;stroke-linecap:round;stroke-linejoin:miter;stroke-miterlimit:4;stroke-opacity:1" />
      </g>
      <g
         style="opacity:1"
         transform="matrix(0.857143,0,0,0.857143,301.2857,12.28568)"
         id="g10356">
        <path
           id="path10358"
           d="M -11.416675,422.5833 L -5.5833401,422.5833 L -5.5833401,428.41653 L -11.416675,428.41653 L -11.416675,422.5833 z "
           style="fill:url(#linearGradient12135);fill-opacity:1;stroke:#888a85;stroke-width:1.16666651;stroke-linecap:round;stroke-linejoin:round;stroke-miterlimit:4;stroke-opacity:1" />
        <path
           id="path10360"
           d="M -10.250011,423.74978 L -6.750008,423.74978 L -6.750008,427.24994 L -10.250011,427.24994 L -10.250011,423.74978 z "
           style="fill:none;fill-opacity:1;stroke:url(#linearGradient12137);stroke-width:1.16666627;stroke-linecap:round;stroke-linejoin:miter;stroke-miterlimit:4;stroke-opacity:1" />
      </g>
    </g>
  </g>
</svg>
